X: 2920
T: Barrack Hill
R: slide
M: 12/8
K: Adorian
e2 A ABd e2 d B2 d|e2 A B2 A G2 A B2 d|
e2 A ABd e2 d B2 d|efe e2d c2B A3:|
|:e2 a aga e2f g2 d|e2 a aga g2e d^cd|
e2 a aga e2f g2 d|efe e2d c2B A3:|

